src/lib/packages/icons/src/assets/filled/phone-flip.svg

<svg width="24" height="24" viewBox="0 0 24 24" fill="none" xmlns="http://www.w3.org/2000/svg">
<path d="M9.13115 14.794L10.2461 16.459C13.0461 15.289 15.2861 13.04 16.4571 10.233L14.7959 9.12798C13.8879 8.52398 13.611 7.315 14.167 6.376L15.73 3.73699C16.055 3.18799 16.6909 2.90499 17.3169 3.02999L17.334 3.03298C19.894 3.54498 21.5321 6.118 20.8401 8.635C19.2041 14.587 14.565 19.212 8.62602 20.842C6.10902 21.533 3.54012 19.893 3.02812 17.334C2.90312 16.71 3.185 16.076 3.731 15.75L6.37407 14.174C7.31307 13.615 8.52315 13.887 9.13115 14.794Z" fill="currentColor"/>
</svg>

<svg xmlns="http://www.w3.org/2000/svg" width="24" height="24" fill="none"><path fill="currentColor" d="m9.131 14.794 1.115 1.665c2.8-1.17 5.04-3.419 6.211-6.226l-1.661-1.105a2.05 2.05 0 0 1-.629-2.752l1.563-2.639a1.5 1.5 0 0 1 1.587-.707l.017.003c2.56.512 4.198 3.085 3.506 5.602A17.442 17.442 0 0 1 8.626 20.842c-2.517.691-5.086-.949-5.598-3.508a1.501 1.501 0 0 1 .703-1.584l2.643-1.576a2.053 2.053 0 0 1 2.757.62Z"/></svg>
